assets/icons/empty-wishlist.svg

<?xml version="1.0" encoding="UTF-8"?>
<svg width="132px" height="185px" viewBox="0 0 132 185" version="1.1" xmlns="http://www.w3.org/2000/svg" xmlns:xlink="http://www.w3.org/1999/xlink">
    <title>X / Atoms / Parts / Desktop / Illustration / Empty State Whishlist</title>
    <g id="X-/-Atoms-/-Parts-/-Desktop-/-Illustration-/-Empty-State-Whishlist" stroke="none" stroke-width="1" fill="none" fill-rule="evenodd">
        <rect id="Rectangle" fill="#F2F0F0" x="0" y="0" width="132" height="185" rx="6"></rect>
        <rect id="Rectangle" fill="#FFFFFF" x="10" y="10" width="112" height="145" rx="4"></rect>
        <rect id="Rectangle-Copy" fill="#FFFFFF" x="10" y="160" width="48" height="6" rx="2"></rect>
        <rect id="Rectangle-Copy-2" fill="#FFFFFF" x="10" y="169" width="58" height="6" rx="2"></rect>
        <path d="M57.5341151,62.0069931 C60.5059236,62.1180286 63.036581,63.5307657 64.7268484,64.7704261 C65.2008037,65.1179804 65.625991,65.4646791 65.9957443,65.7873199 C66.3640265,65.4637377 66.7909377,65.1166415 67.2666673,64.7686927 C68.9603481,63.5300563 71.4945417,62.1179746 74.4659985,62.0069899 L74.8396789,62 L75.1790755,62.0045435 C78.0093548,62.0803403 80.8782212,63.1062614 82.9782552,65.2155378 C85.1402257,67.3869817 86.2930227,70.5126204 85.9357486,74.350347 L85.8945246,74.7398844 C85.6550436,76.7427316 84.6911526,79.0696688 83.4604711,81.3744479 L83.2267036,81.8062497 C81.8537925,84.3091421 80.0702081,86.987368 78.1790663,89.5402605 L77.5315306,90.4041072 L77.5315306,90.4041072 L76.8743722,91.260753 L76.8743722,91.260753 L76.2101331,92.1074031 C76.0989777,92.2475232 75.9876332,92.3871104 75.8761526,92.5261064 L75.2060582,93.3525226 L75.2060582,93.3525226 L74.5352378,94.161956 C74.4235151,94.295291 74.3118681,94.427802 74.2003497,94.5594307 L73.5332061,95.3381494 L73.5332061,95.3381494 L72.8716912,96.0928982 C72.6524068,96.3401755 72.4344841,96.5829921 72.2183468,96.820882 L71.5757147,97.5193062 C70.0907147,99.1123025 68.7139577,100.44107 67.5907545,101.345836 L67.354002,101.533166 L67.2093157,101.636548 C66.4705671,102.121151 65.5118373,102.121151 64.7730886,101.636548 L64.6284023,101.533166 L64.3916042,101.345797 C63.6475585,100.746416 62.792605,99.9610153 61.8688885,99.0360402 L61.2433529,98.3992221 C61.1375533,98.2898093 61.0310204,98.1788008 60.923812,98.0662604 L60.2729181,97.3731429 L60.2729181,97.3731429 L59.6085875,96.6463153 C59.4969001,96.522538 59.3847685,96.3974836 59.2722505,96.2712157 L58.5929678,95.4995565 C58.4791353,95.3686896 58.365032,95.2367366 58.2507157,95.1037614 L57.5627245,94.2941513 C57.3328505,94.0205317 57.1025869,93.7433325 56.8723964,93.4630632 L56.1825064,92.6135553 L56.1825064,92.6135553 L55.4958294,91.7486855 C55.3818052,91.6034303 55.2680305,91.4576624 55.154563,91.3114456 L54.4779087,90.4292669 L54.4779087,90.4292669 L53.8114048,89.5393716 L53.8114048,89.5393716 C51.9225076,86.9862569 50.1411676,84.308031 48.7699232,81.8053608 C47.5093119,79.5044949 46.4867717,77.1603815 46.1587179,75.1190094 L46.1050578,74.7364844 L46.0642719,74.350347 C45.7069361,70.5126204 46.859713,67.3869817 49.021705,65.2155378 C51.1217604,63.1062614 53.9905248,62.0803403 56.8209543,62.0045435 L57.1603702,62 L57.5341151,62.0069931 Z" id="Shape" fill="#F2F0F0" fill-rule="nonzero"></path>
    </g>
</svg>

<svg width="132" height="185" viewBox="0 0 132 185" xmlns="http://www.w3.org/2000/svg"><g fill="none" fill-rule="evenodd"><rect fill="#F2F0F0" width="132" height="185" rx="6"/><rect fill="#FFF" x="10" y="10" width="112" height="145" rx="4"/><rect fill="#FFF" x="10" y="160" width="48" height="6" rx="2"/><rect fill="#FFF" x="10" y="169" width="58" height="6" rx="2"/><path d="M57.534 62.007c2.972.111 5.503 1.524 7.193 2.763.474.348.899.695 1.269 1.017.368-.323.795-.67 1.27-1.018 1.694-1.239 4.229-2.651 7.2-2.762L74.84 62l.34.005c2.83.075 5.698 1.101 7.798 3.21 2.162 2.172 3.315 5.298 2.958 9.135l-.041.39c-.24 2.003-1.204 4.33-2.435 6.634l-.233.432c-1.373 2.503-3.157 5.181-5.048 7.734l-.647.864-.658.857-.664.846-.334.42-.67.826-.67.809a95.47 95.47 0 0 1-.336.397l-.667.78-.661.754c-.22.247-.438.49-.654.728l-.642.698c-1.485 1.593-2.862 2.922-3.985 3.827l-.237.187-.145.104a2.223 2.223 0 0 1-2.436 0l-.145-.104-.236-.187c-.744-.6-1.6-1.385-2.523-2.31l-.626-.637-.32-.333-.65-.693-.664-.727a81.018 81.018 0 0 1-.337-.375l-.679-.771-.342-.396-.688-.81c-.23-.273-.46-.55-.69-.83l-.69-.85-.687-.865a99.512 99.512 0 0 1-.341-.438l-.677-.882-.667-.89c-1.888-2.553-3.67-5.231-5.041-7.734-1.26-2.3-2.283-4.645-2.611-6.686l-.054-.383-.04-.386c-.358-3.837.795-6.963 2.957-9.134 2.1-2.11 4.969-3.136 7.799-3.211l.34-.005.373.007Z" fill="#F2F0F0" fill-rule="nonzero"/></g></svg>
